X:5
T:No.59 Mazurka
C:mazurka
M:3/4
L:1/8
K:G
GA||B2BAGE|DB,D2B,D|
ECE2CE|DB,D2GA|B2BAGE|
DB,D2B,D|E2F2D2|GFG2GA:||
B2B2dB|cBc2DF|A2A2dc|
BAB2GA|B2B2dB|cBc2DF|
A2AcBA|[1G2G2GA:|[2G2G3||
